X: 271
T: Legend
C: Bert Murray
B: Bert Murray's "Bon Accord Collection" 1999 p.27
%
N: This tune was written for the late Willie Hunter, a great friend of almost forty five years,
N: and a top class fiddler from Lerwick in Shetland
Z: 2011 John Chambers <jc:trillian.mit.edu>
M: C
L: 1/8
K: Eb
%%slurgraces
uB,2 |\
{EF}E3F G2B2 | e3d c2B2 | c3e B2G2 | {FG}F6 B,2 |\
{EF}E3F G2B2 | e3d c2B2 | c3e B2G2 | {EF}E6 B,2 |
{EF}E3F G2B2 | A3B c2e2 | B3G e2G2 | {E}F6 B,2 |\
E3G, B,2E2 | G2B2 e3c | B2e2 d2f2 | {ef}e6 ||
f2 |\
{ga}g3f e2g2 | {fg}f3d B2d2 | e3d c2e2 | {Bc}B6 G2 |\
A3C E2A2 | G3B, E2G2 | F2C2 F3E |D2B,2 C2D2 |
{EF}E3F G2E2 | A3B c2A2 | B2G2 e3G | {FG}F6 B,2 |\
G,3B, E2G,2 | A,3C F2A2 | B2e2 d2f2 | {ef}e6 |]

%%sep 2 1 500

